X:5
T:Kadril van Kampenhout
T:Vijfde figuur "Gallo"
C:Trad.
O:Vlaanderen
Z:Bart Vanhaverbeke 
L:1/8
M:2/4
K:F
(3C/D/E/ | FF/F/ FA | cA FA | Gc/d/ cBAG | (A2 F) (3C/D/E/ | FF/F/ FA | cA FA | Gc de | f z F |]
